build/img/icons/doublecheck.svg

<svg width="24" height="24" viewBox="0 0 24 24" fill="none" xmlns="http://www.w3.org/2000/svg">
<path d="M0.332764 13.0648L5.98804 18.7201L7.39804 17.3001L1.74775 11.6499L0.332764 13.0648ZM22.2473 5.28088L11.648 15.8901L7.41118 11.6433L5.98118 13.0533L11.648 18.7201L23.6673 6.70088L22.2473 5.28088ZM18.0089 6.6993L16.5989 5.2793L10.228 11.6501L11.648 13.0601L18.0089 6.6993Z" fill="#131313" fill-opacity="0.4"/>
</svg>

<svg width="24" height="24" viewBox="0 0 24 24" fill="none" xmlns="http://www.w3.org/2000/svg">
    <path d="M.333 13.065l5.655 5.655 1.41-1.42-5.65-5.65-1.415 1.415zM22.247 5.28L11.648 15.89l-4.237-4.248-1.43 1.41 5.667 5.667L23.668 6.7l-1.42-1.42zM18.01 6.699l-1.41-1.42-6.371 6.371 1.42 1.41 6.36-6.36z" fill="#131313" fill-opacity=".4"/>
</svg>
